X: 1829
T: Sûzidil Peşrev
C: Tanburî Ali Efendi
O: Turkey
F: http://compmusic.upf.edu/node/140
N: suzidil--pesrev--devrikebir----tanburi_ali_efendi
N: makam= suzidil
N: form= pesrev
N: usul= devrikebir = 28/4
M: 28/4
L: 1/16
K: C ^1/4f ^g ^d 
Q: 1/4=72
%%MIDI tuningsystem comma53
ede=f e2d2 e4 f4  | e2=f2 d2e2 c2d2 B4  | \
w:  1. HANE  |   | 
d2c2 B2A2 B4 c4  | 
w:   | 
e=fed cdcd e4 z4  | e2=f2 g2a2 g2f2 e2d2  | \
w:   |   | 
e6=f2 g2a2 b2c'2  | 
w:   | 
a2=d'4c'b baag a4  | =d4 a4 a6=g2  | \
w:   |   | 
=g2ga _b2ba a2ag g2g=f  | 
w:   | 
=f3e e=gfe e4 z4  | c=dcB A4 GAG=F E4  | \
w:   |   | 
A3B c=dcB B8  | 
w:   | 
=d4 c2d2 e2=f=g fed2  | e3=d c2e2 d4 z4  | \
w:   |   | 
c4 =g4 g4 =f2e2  | a6=g2 ag=fe =d4  | 
w:  TESLİM  |   | 
c3=d e2=f=g (3.f2.e2.f2 (3.e2.d2.e2  | \
w:   | 
(3.=d2.c2.d2 c2B2 B4 z4  | A3B c2=d2 e2d2 c2.B2  | 
w:   |   | 
B2A2 G2=F2 E4 BAB2  | G3A G=FFE E4 z4  | \
w:   |   | 
E2AG A2B2 c8  | 
w:  2. HANE  | 
B3c B2c2 A2B2 =G4  | A3B c2=d2 e2=f2 e2d2  | \
w:   |   | 
c3B A2B2 c6=d2  | 
w:   | 
e3=d c2d2 e4 =g4  | ^f3a =g2=f2 e6=d2  | \
w:   |   | 
c3B A2B2 =G3=F E4  | z2=g4^9/8f2 e4 d4  | 
w:   |   | 
(3.e2.d2.e2 (3.^9/8f2.e2.f2 (3.=g2.f2.g2 (3.a2.g2.a2  | \
w:   | 
=d'2c'2 b2a2 g2=f2 e2d2  | e6d2 cdcB c3/2B/cd  | 
w:   |   | 
e8 c2=d2 B2c2  | A6B2 c4 =d4  | _7/8e^3/4fe=d dccB c4 z4  | \
w:   |   |   | 
c4 =g4 g4 =f2e2  | 
w:  TESLİM  | 
a6=g2 ag=fe =d4  | c3=d e2=f=g (3.f2.e2.f2 (3.e2.d2.e2  | \
w:   |   | 
(3.=d2.c2.d2 c2B2 B4 z4  | 
w:   | 
A3B c2=d2 e2d2 c2.B2  | B2A2 G2=F2 E4 BAB2  | \
w:   |   | 
G3A G=FFE E4 z4  | 
w:   | 
z2a4g2 abag a4  | z2=d4^3/4c2 dedc d4  | \
w:   |   | 
g2a2 b2c'2 b2a2 g2=f2  | 
w:   | 
g4 a2bc' b2a2 g2=f2  | e6=d2 ^3/4c2^9/8f2 e4  | \
w:   |   | 
=d^3/4cB2 c2d2 c4 ^9/8f4  | e2=d2 ^3/4c2B2 A4 e4  | 
w:   |   | 
^2/4f4 e2d2 ^3/4g4 f2e2  | a4 ^3/4g2a2 b4 a2c'2  | \
w:   |   | 
b2a2 g2=f2 e4 z4  | =d4 e2=f2 e3d c2e2  | 
w:   |   | 
=d3c _2/4B2d2 c3B A2B2  | =G4 e4 =d3c B2c2  | \
w:   |   | 
B2c2 =d2B2 c4 z4  | c4 =g4 g4 =f2e2  | 
w:   |  TESLİM  | 
a6=g2 ag=fe =d4  | c3=d e2=f=g (3.f2.e2.f2 (3.e2.d2.e2  | \
w:   |   | 
(3.=d2.c2.d2 c2B2 B4 z4  | 
w:   | 
A3B c2=d2 e2d2 c2.B2  | B2A2 G2=F2 E4 BAB2  | \
w:   |   | 
G3A G=FFE E4 z4  | 
w:   | 
E2D2 E2=F2 G2A2 B2c2  | B3A G2A2 B2c2 A4  | \
w:  4. HANE  |   | 
e=f=de cdBc A4 z4  | 
w:   | 
B2{d}c2 B2c2 B2c2 B2c2  | d2{=f}e2 d2{f}e2 d2e2 d2e2  | \
w:   |   | 
c2B2 A2G2 A6=f2  | 
w:   | 
e3d c2d2 e6z2  | e4 =g2^3/4f2 g4 e4  | \
w:   |   | 
=g2^9/8f2 e2d2 e6g2  | ^9/8f2e2 d2c2 B4 z4  | 
w:   |   | 
d2c2 B2A2 B2A2 G2=F2  | G8 E2=F2 G2A2  | \
w:   |   | 
G4 A4 B2c2 B2c2  | =d2_7/8e^3/4f e2d2 dccB c4  | 
w:   |   | 
c4 =g4 g4 =f2e2  | a6=g2 ag=fe =d4  | \
w:  TESLİM  |   | 
c3=d e2=f=g (3.f2.e2.f2 (3.e2.d2.e2  | 
w:   | 
(3.=d2.c2.d2 c2B2 B4 z4  | A3B c2=d2 e2d2 c2.B2  | \
w:   |   | 
B2A2 G2=F2 E4 BAB2  | 
w:   | 
G3A G=FFE E4 z4  | |


